X:85
T:Denis Murphy's
R:slide
D:Jerry O'Sullivan
Z:id:hn-slide-85
M:6/8
L:1/8
K:G
A3 AGA | B2A G2B | AGE G2E | D2E G3 |
A3 AGA | B2A G2B | AGE G2E |1 D3 DEG :|2 D3 D3 ||
|: d2A AGA | B2A G2B | AGE G2E | D2E G3 |
d2A AGA | B2A G2B | AGE G2E |1 D3 D3 :|2 D3 DEG ||

